X:1
T:5 Lieder, Op.47
T:Liebesglut
T:2. Liebesglut
T:Johannes Brahms
T:5 Lieder, Op. 47 
T:Georg Friedrich Daumer
T:OpenScore (CC0) 
T:OpenScore (CC0) 
T:OpenScore (CC0) 
T:OpenScore (CC0) 
T:OpenScore (CC0) 
C:Johannes Brahms
Z:Georg Friedrich Daumer
Z:
Z:OpenScore (CC0)
Z:
%%score 1 { ( 2 4 ) | ( 3 5 ) }
L:1/8
Q:1/4=100
M:2/4
K:Ab
V:1 treble nm="Voice"
V:2 treble nm="Piano"
V:4 treble 
V:3 bass 
V:5 bass 
V:1
"^Appassionato" z | z4 | z4 | z4 | z2 z F | F3 F | G3 G | e c A G | F2 A2 | z2 z A | A3 A | B3 B | %12
w: ||||Die|Flam- me|hier, die|wil- de, zu ver-|heh- len,|die|Schmer- zen|al- le,|
 g =e c B | A2 c2 | z2 z f | e3 =B | c3 f | e =B c G | A2 =E E | G F A c | e3 d | B2 g2 | f4 | %23
w: wel- che mich zer-|quä- len,|ver-|mag ich|es, da|al- le Win- de|rings- um die|Grün- de mei- ner|Trau- rig-|keit er-|zäh-|
 =e2 z2 | z4 | z4 | z4 | z2 z c | c2 z d | c B B f | =e3 d | c2 G B | A3 d | A2 z d | A3 A | c3 c | %36
w: len?||||Dass|ich, ein|Stäub- chen dei- nes|We- ges|stäu- be, wie|magst du|doch, o|sprich, wie|darfst du|
 e4 | =d2 z =d | =d3 ^c | =B3 B | =A G =D =E | ^F2 F2 | z2 z _d | _d3 =c | _B3 B | A _G D E | %46
w: schmä-|len? Ver-|kla- ge|dich, ver-|kla- ge das Ver-|häng- nis,|das|wal- tet|ü- ber|al- le Men- schen-|
 F2 F2 ||[K:F] z4 |!>(! z4 | z4!>)! |!p! z2 E2 | E3 E | ^G3 G | =B3 ^G | E2 e2 | E4 | E2 z2 | z4 | %58
w: see- len!||||Da|sel- bi-|ges ver-|ord- ne-|te, das|ew-|ge,||
 z2 e2 | e4- | e2 c2 | c4- | c2 _A2 | G2 F2 | E2 F2 | c4 | c2 z2 | z4 | z4 | z4 | z2 c2 | %71
w: wie|al-|* le|soll-|* ten|ih- re|We- ge|wäh-|len,||||da|
[M:4/4] c6 ^c2 | d6 d2 | g2 e2 c2 B2 | B2 A2 z2 c2 | f4 e2 z2 | _e4 d2 z2 | _d3 d f2 d2 | %78
w: wur- de|dei- nem|Lo- cken- haar der|Auf- trag, mir|Eh- re,|Glau- ben|und Ver nunft zu|
 (c3 B) =A2 z A | d4 ^c2 z2 | =c4 =B2 z2 | _B2 _d2 _g2 d2 | (c6 E2) | F2 z2 z4 | z8 | z8 | z8 |] %87
w: steh- * len, mir|Eh- re,|Glau- ben|und Ver- nunft zu|steh- *|len.||||
V:2
!f! ([gg'] | [ff'][=e=e'][ff'][dd'] | [cc'][=A=a][Bb][Ff] | [Ee][Cc][Dd][A,A]) | .[CFc]2 .[C=Ec]2 | %5
 (3z!mf! (([F,A,]C [A,F]2)) |!<(! (3z ([G,B,]E [B,G]2)!<)! | (3z ([CE]G [Ec]2) | %8
!>(! (3z ([F,A,]D [A,F]2)!>)! | [df]2 [dfa]2 | (3z ([F,A,]D!<(! [A,F]2) | %11
 (3z (([B,D]G [DB]2))!<)! | (3z ([=EG]B [G=e]2) |!>(! (3z ([CA]F [Ac]2)!>)! | (3z Ac f2 | %15
!p! (3z (_E[B_e]) (3z (E[G=B]) | (3z (E[Ac]) (3z (E[Acf]) |"_cresc." (3z (E[=Be]) (3z (C[Gc]) | %18
 (3z (A,[FA]) (3z (A,[C=E]) | (3z (F,!<(![A,DF]) (3z (A,[CEA]) | (3z (F[Ae])!<)! (3z (F[Ad]) | %21
 (3z (D[GB]) (3z (G[Bdg]) | (3z (F[Acf]) (3z (F[A=df]) | (3z (=E[Gc=e])!f! (3z (g[_bg']) | %24
 ([ff'][=e=e'][ff'][dd'] | [cc'][=A=a][Bb][Ff] | [Ee][Cc][Dd][A,A]) | .[CFc]2 .[C=Ec]2 | %28
!p! (3z .Cz(3.B,z.D |!<(! (3z .Cz(3.B,z.F!<)! | (3z =Ez(3.B,z.D |!>(! (3z .Cz(3.G,z.B,!>)! | %32
 (3z!<(! (A,[G,B,]) (3z ([_G,C][_F,D])!<)! | (3z!<(! (A,[=G,B,]) (3z ([_G,C][_F,D])!<)! | %34
!<(! (3z (A,[=G,B,]) (3z ([_G,C][_F,D]) | (3z (E=E) (3z (F^F)!<)! |"_cresc." (3z (EG) (3z (eg) | %37
 (3z ([=B,=D]G) (3z ([=B=d]g) |!f! (3(^f^F=d (3=eF^c |!>(! (3=d^F=B (3dFB)!>)! | %40
 (3=A=EG (3=D=B,^C |!>(! (3(^F=B,=D (3F^A,^C)!>)! |!f! (3(_g_Gg (3=F=fF) | (3(fF_d (3_eFc | %44
 (3d!>(!FB (3dFB)!>)! | (3AE_G (3DB,C | (3(F!>(!B,D (3F=A,C)!>)! ||[K:F]!f! (3(fFf (3EeE | %48
 (3eEe) (3(=B,=BB, | (3=B=B,B) (3(E,EE, | (3EE,E (3E,EE,) | (3z (E,E(3E,EE,) | (3z (^G,^G(3G,GG,) | %53
!<(! (3z (=B=B,) (3z (^G^G,)!<)! | (3z (EE,)!f! (3z (eE) | (3z!>(! (EE,(3EE,E | %56
 (3E,EE,)!>)!!f! (3z (eE) | (3z (E!>(!E,(3EE,E | (3E,EE,(3EE,E)!>)! |!p! z (.[E,G,].[G,C].[CE] | %60
 .[EG].[Gc].[ce].[eg]) | z (.[F,_A,].[A,C].[CF] | .[F_A].[Ac].[cf].[f_a]) | %63
[K:bass] z (.[D,F,].[F,_A,].[A,D]) |[K:treble] (.[DF].[F_A].[Ad].[df]) | %65
[K:bass] z (.[C,E,].[E,G,].[G,C]) |[K:treble] (.[CE].[EG].[Gc].[ce]) | z ([DF]2 [=Bd]) | %68
 z ([=B,D]2 [_A=B]) | z!>(! (E2 [Gc]) | z ([CE]2!>)! [GB]) |[M:4/4] z (AcGcF^c_E) | %72
 z!<(! (BdAd_AdG)!<)! | z (cgBeBc^G) | z (cc'cacfA) |!<(! z (A!<)!!>(!f^G)!>)! z (Ae_e) | %76
!<(! z (G!<)!!>(!_e^F)!>)! z (Gd_d) | z _G_dF z BzF | (F=A,=E=G,) (A,F,A,=E,) | %79
!<(! z (F!<)!!>(!A^G)!>)! z (EA_E) |!<(! z (_E!<)!!>(!G^F)!>)! z (DG_D) | %81
!<(! z _DF!<)!_C!>(! _GB,_D!>)!B, |[K:bass] z (A,C_A,) (CG,B,=E,) | %83
[K:treble][K:treble]!p! z (=A,CG, C"_cresc." A[Cc]G) | ([Cc]!<(! (c[Ff])(B [Ff]) (f[Bb])!<)!(f) | %85
!>(! [Aa])(f[Gg]d [Ee]_B[Cc]!>)!G) | ([C-EB]6 [CFA]2) |] %87
V:3
 z |!ped! (3[C,,C,][K:treble] (C[GB]) (3z (C[FA])!ped-up! | (3z (C[E_G])[K:bass] (3z (C,D) | %3
 (3z (C,[_G,__B,]) (3z (C,F,) | .[C,=G,]2 .[C,,G,,C,]2 | [F,,,F,,]2 (3z (F,C,) | E,,2 (3z (G,E,) | %7
 [A,,,A,,]2 (3z (G,E,) | D,,2 (3z (D,A,,) | D,,2 (3z (F,D,) | D,,2 (3z (F,D,) | %11
 [G,,,G,,]2 (3z (G,D,) | C,,2 (3z (G,C,) | [F,,,F,,]2 (3z (F,C,) | F,,2 (3z (FC) | _E,4 | E,4 | %17
 E,4 | C,4 | ([D,,D,]2 [A,,,A,,]2 | [D,,,D,,]2 [F,,,F,,]2 | [G,,,G,,]2 [B,,,B,,]2) | %22
 [C,,C,]2 ([C,F,A,=B,]2 | [C,=E,G,C]2) [C,G,_B,]2 | (3[C,,C,][K:treble] (C[GB]) (3z (C[FA]) | %25
 (3z (C[_E_G])[K:bass] (3z (C,D) | (3z (C,[_G,__B,]) (3z (C,F,) | .[C,=G,]2 .[C,,G,,C,]2 | %28
 (3.C,z.B,,(3z.D, z | (3.C,z.B,,(3z.F, z | (3.=E,z.B,,(3z.D, z | (3.C,z.G,,(3z.B,, z | %32
 (A,,2 A,,,2) | (A,,2 A,,,2) | (A,,2 A,,,2) | (3A,,E,=E, (3A,,F,^F, | (G,2 G,,2) | (G,,2 G,,,2) | %38
!ped! [^F,,,^F,,]2 ([^F,-^C=E]2!ped-up! | [F,=B,=D]2) [=B,,,=B,,]2 | %40
 ([^C,,^C,][=E,,=E,] [G,,G,]2) | [^F,,^F,]4 | (((((([_G,,,_G,,]2 [=F,,,=F,,]2)))))) | _D2 ([CE]2 | %44
 [B,D]2) B,,,2 | ([C,,C,][E,,E,] [_G,,_G,]2) | [F,,F,]4 ||[K:F] ([F,,F,]2 [E,,E,]2-) | %48
 [E,,E,]2 [=B,,,=B,,]2- | [B,,,B,,]2 [E,,,E,,]2- | [E,,,E,,]2 E,,2 | E,,4 | ^G,,4 | =B,,2 ^G,,2 | %54
 E,,2 (E,2 | (E,,4) | E,,2) (E,2 | (E,,4) | D,,4) | C,4 | _B,,4 | _A,,4 | F,,4 | =B,,4 | _A,,4 | %65
 G,,4 | C,2 (C2 | _B,2 _A,2 | G,2 F,2) | (C4 | G,4) |[M:4/4] (F,2!p! A,2 _E2 A,2) | %72
 (F,2 B,2 F2 =B,2) | (F,2 C2 G2 E2) | (F,2 A2 F2 A,2) | (D, A,2 =B,) A,, (^C2 =C) | %76
 (C, G,2 A,) (G,, =B,2 B,) |!<(! (B,, B,2 _D,) (B,, F,2 _D,)!<)! | (C,, A,,2 C,) (^C,, A,,2 ^C,) | %79
 D,4 (A,,2 z2) | =C,4 G,,2 z2 | B,,B,_D,_A,, _G,,_G,B,,,B,, | C,,4 C,4 | x4 F,,4 | F,,4 F,,4 | %85
 (=B,,2 F,2 C,2 E,2) | (F,,-C,- G,4 F,2) |] %87
V:4
 x | x4 | x4 | x4 | x4 | x4 | x4 | x4 | x4 | (3z FA d2 | x4 | x4 | x4 | x4 | [fa]2 [ac']2 | x4 | %16
 x4 | x4 | x4 | x4 | x4 | x4 | x4 | x4 | x4 | x4 | x4 | x4 | x4 | x4 | x4 | x4 | x4 | x4 | x4 | %35
 (3:2:2z C2 (3:2:2z C2 | (3:2:2x C2 (3:2:2x c2 | x4 | ^f2 =e2 | =d2 d2 | (3(^cx=B (3=D x =E) | %41
 ^F2 F2 | x4 | f2 _e2 | d2 d2 | (3(cxB (3D x E) | F2 F2 ||[K:F] f2 x2 | x4 | x4 | x4 | x4 | x4 | %53
 x4 | x4 | x4 | x4 | x4 | x4 | x4 | x4 | x4 | x4 |[K:bass] x4 |[K:treble] x4 |[K:bass] x4 | %66
[K:treble] x4 | x4 | x4 | x4 | x4 |[M:4/4] x (A2 G2 F2 _E) | x (B2 A2 _A2 G) | x (c2 B2 B2 ^G) | %74
 x8 | x A2 ^G x A3 | x G2 ^F x G3 | x (_G2 F _E_DCB,) | z (A,2 G,) z (F,2 E,) | x F3 x E2 _E | %80
 x _E3 x D2 _D | x _D2 _C x4 |[K:bass] z F,2 F, z (F,2 E,) |[K:treble][K:treble] x A,2 G,2 x x2 | %84
 x c2 B2 f2 x | x8 | x8 |] %87
V:5
 x | x2/3[K:treble] x10/3 | x2[K:bass] x2 | x4 | x4 | x4 | x4 | x4 | x4 | x4 | x4 | x4 | x4 | x4 | %14
 x4 | (G,,2 E,,2) | (A,,2 E,,2) | (G,,2 E,,2) | (F,,2 C,,2) | x4 | x4 | x4 | x4 | x4 | %24
 x2/3[K:treble] x10/3 | x2[K:bass] x2 | x4 | x4 | x4 | x4 | x4 | x4 | A,,4 | A,,4 | A,,4 | x4 | %36
 x4 | x4 | x4 | x4 | x4 | x4 | x4 | F,4 | F,2 B,,2 | x4 | x4 ||[K:F] x4 | x4 | x4 | x4 | x4 | x4 | %53
 x4 | x4 | x4 | x4 | x4 | x4 | (C,,4 | C,,4) | (C,,4 | C,,4) | C,,4- | C,,4 | (C,,4 | C,,2) z2 | %67
 (C,4 | C,4) | (C,4 | C,4) |[M:4/4] F,8 | F,8 | F,8 | x8 | D,4 A,,2 z2 | C,4 G,,2 z2 | B,,4 B,,4 | %78
 x8 | (D, A,2 =B,) (A,, ^C2 =C) | (=C, G,2 A,) (G,, =B,2 _B,) | (B,,3 _A,,) (_G,,2 B,,,2) | C,,8 | %83
 (F,,,2 F,,2) z F,2 E,- | E, (D,2 _D,2 C,2 F,) | F,,4 F,,4 | F,,,2 [F,,C,]4- [F,,C,]2 |] %87

